X: 710
T: Dingzui diao
%%abc-version 2.0
%%abcx-abcm2ps-target-version 5.9.1 (29 Sep 2008)
%%abc-creator hum2abc beta
%%abcx-conversion-date 2013/10/02 07:52:30
%%abc-edited-by Helmut Schaffrath
%%humdrum-veritas 3837557531
%%humdrum-veritas-data 1656734098
%%continueall 1
%%barnumbers 0
L: 1/8
M: 2/4
K: G
e< e e B [I:setbarnb 1]| 
e2d B | 
e B B A | 
G3E | 
d e e d | 
e d B A | 
B F E G | 
D4 | 
G E G A | 
B B d B | 
A G E D/ E/ | 
G4 | 
d e e d | 
e d B A | 
A F E G | 
D4 |]  



